!!!OTL: Jikele' Maweni
!!!XEN: Go Round to the Rocks
!!!CNT: African -- sub-Saharan -- Xhosa
!!!AMT: irregular
**kern
*k[f#]
*M5/4
*MM[ad lib.]
8dd
=1
4.dd
8g
8cc
8b
4a
4g;
*M6/4
=2
8a
8b
8cc
8b
(8cc
8b)
8g
8g
4a
4d;
*M4/4
=3
8a
8b
8cc
8b
4a
4d;
=4
8r
8b
(8cc
8b)
4.g;
8dd
*M5/4
=5
4.dd
8g
8cc
8b
4a
4g;
*M6/4
=6
8a
8b
8cc
8b
(8cc
8b)
8g
8g
4a
4d;
*M4/4
=7
16a
16a
8b
8cc
8b
4a
4d;
=8
8r
8b
(8cc
8b)
4.g;
8g
*M2/2
=9
8b
8b
8b
8b
8a
8a
8g
8g
=10
2.a
4e
=11
8a
8a
8a
8a
8g
8g
8e
8e
=12
4g
[4d
2d]
=13
8b
8b
8b
8b
8a
8a
8g
8g
=14
2.a
4e
=15
8a
8a
8a
8a
8g
8g
8e
8e
=16
4g
[4d
4.d]
8b
=17
4g
8b
8b
4g
8g
8b
!! page 47
=18
8a
8a
8a
8a
4a
8e
8a
=19
4e
8a
8a
4e
8a
8a
=20
8g
8g
8g
8e
4g
8d
8b
=21
4g
8b
8b
4g
8g
8b
=22
8a
8a
8a
8a
4a
8e
8a
=23
4e
8a
8a
4e
8a
8a
=24
8g
8g
8g
8e
4g
4d
=25
8b
8b
8b
8b
8a
8a
8g
8g
=26
2.a
4e
=27
8a
8a
8a
8a
8g
8g
8e
8e
=28
4g
[4d
2d]
=29
8b
8b
8b
8b
8a
8a
8g
8g
=30
2.a
4e
=31
8a
8a
8a
8a
8g
8g
8e
8e
=32
4g
[4d
4.d]
8b
=33
4g
8b
8b
4g
8g
8b
=34
8a
8a
8a
8a
4a
8e
8a
=35
4e
8a
8a
4e
8e
8a
=36
8g
8g
8g
8e
4g
8d
8b
=37
4g
8b
8b
4g
8g
8b
=38
8a
8a
8a
8a
4a
8e
8a
=39
4e
8a
8a
4e
8e
8a
!! First ending.
=40
8g
8g
8g
8e
4g
4d
=41
8b
8b
8b
8b
8a
8a
8g
8g
=42
2.a
4e
=43
8a
8a
8a
8a
8g
8g
8e
8e
=44
4g
[4d
2d]
=45
8b
8b
8b
8b
8a
8a
8g
8g
=46
2.a
4e
=47
8a
8a
8a
8a
8g
8g
8e
8e
=48
4g
[4d
4.d]
8b
=49
4g
8b
8b
4g
8g
8b
!! page 47
=50
8a
8a
8a
8a
4a
8e
8a
=51
4e
8a
8a
4e
8a
8a
=52
8g
8g
8g
8e
4g
8d
8b
=53
4g
8b
8b
4g
8g
8b
=54
8a
8a
8a
8a
4a
8e
8a
=55
4e
8a
8a
4e
8a
8a
=56
8g
8g
8g
8e
4g
4d
=57
8b
8b
8b
8b
8a
8a
8g
8g
=58
2.a
4e
=59
8a
8a
8a
8a
8g
8g
8e
8e
=60
4g
[4d
2d]
=61
8b
8b
8b
8b
8a
8a
8g
8g
=62
2.a
4e
=63
8a
8a
8a
8a
8g
8g
8e
8e
=64
4g
[4d
4.d]
8b
=65
4g
8b
8b
4g
8g
8b
=66
8a
8a
8a
8a
4a
8e
8a
=67
4e
8a
8a
4e
8e
8a
=68
8g
8g
8g
8e
4g
8d
8b
=69
4g
8b
8b
4g
8g
8b
=70
8a
8a
8a
8a
4a
8e
8a
=71
4e
8a
8a
4e
8e
8a
!! Second ending.
=72
8g
8g
8g
8e
4.g;
!! Da Capo al Fine
8dd
=73
4.dd
8g
8cc
8b
4a
4g;
*M6/4
=74
8a
8b
8cc
8b
(8cc
8b)
8g
8g
4a
4d;
*M4/4
=75
8a
8b
8cc
8b
4a
4d;
=76
8r
8b
(8cc
8b)
4.g;
8dd
*M5/4
=77
4.dd
8g
8cc
8b
4a
4g;
*M6/4
=78
8a
8b
8cc
8b
(8cc
8b)
8g
8g
4a
4d;
*M4/4
=79
16a
16a
8b
8cc
8b
4a
4d;
=80
8r
8b
(8cc
8b)
4.g;
==
*-
!!!OPR: Miriam Makeba, "The World of African Song"
!!!PPP: Chicago
!!!PPR: Quadrangle Press (12 East Delaware Place)
!!!PDT: 1971///
!!!PPG: 46-47
!!!ENC: David Huron
!!!EMD: 1998/9/29/ Paul von Hippel updated this file in the following ways:
!!!EMD:  (1) changed the representation of slurs from curly braces to parentheses 
!!!EMD:  (2) changed freeform comments into reference records and tandem interpretations
!!!EMD:  (3) changed final barline from triple (===) to double (==)
!!!EMD:  (4) added key signature from printed source
!!!EEV: Version 2.0
